docs/assets/favicon.svg

<?xml version="1.0" encoding="UTF-8"?>
<svg version="1.1" viewBox="0 0 24 24" xmlns="http://www.w3.org/2000/svg"><path d="m4 4v18h16v2h-16c-1.1 0-2-.9-2-2v-18h2" fill="#4cae4f"/><path d="m15 7h5.5l-5.5-5.5v5.5m-7-7h8l6 6v12c0 1.11-.89 2-2 2h-12c-1.11 0-2-.9-2-2v-16c0-1.11.89-2 2-2m9 16v-2h-9v2h9m3-4v-2h-12v2z" fill="#0091eb"/></svg>

<?xml version="1.0" encoding="UTF-8" standalone="no"?>
<svg
   viewBox="0 0 24 24"
   version="1.1"
   id="svg1"
   sodipodi:docname="file-document-multiple-color.svg"
   inkscape:version="1.4.3 (0d15f75042, 2025-12-25)"
   inkscape:export-filename="favicon.png"
   inkscape:export-xdpi="96"
   inkscape:export-ydpi="96"
   xmlns:inkscape="http://www.inkscape.org/namespaces/inkscape"
   xmlns:sodipodi="http://sodipodi.sourceforge.net/DTD/sodipodi-0.dtd"
   xmlns="http://www.w3.org/2000/svg"
   xmlns:svg="http://www.w3.org/2000/svg">
  <defs
     id="defs1">
    <filter
       style="color-interpolation-filters:sRGB;"
       inkscape:label="Drop Shadow"
       id="filter2"
       x="-0.03"
       y="-0.024"
       width="1.0725"
       height="1.058">
      <feFlood
         result="flood"
         in="SourceGraphic"
         flood-opacity="0.498039"
         flood-color="rgb(0,0,0)"
         id="feFlood1" />
      <feGaussianBlur
         result="blur"
         in="SourceGraphic"
         stdDeviation="0.200000"
         id="feGaussianBlur1" />
      <feOffset
         result="offset"
         in="blur"
         dx="0.200000"
         dy="0.200000"
         id="feOffset1" />
      <feComposite
         result="comp1"
         operator="in"
         in="flood"
         in2="offset"
         id="feComposite1" />
      <feComposite
         result="comp2"
         operator="over"
         in="SourceGraphic"
         in2="comp1"
         id="feComposite2" />
    </filter>
    <filter
       style="color-interpolation-filters:sRGB;"
       inkscape:label="Drop Shadow"
       id="filter4"
       x="-0.026666667"
       y="-0.024"
       width="1.0644444"
       height="1.058">
      <feFlood
         result="flood"
         in="SourceGraphic"
         flood-opacity="0.498039"
         flood-color="rgb(0,0,0)"
         id="feFlood2" />
      <feGaussianBlur
         result="blur"
         in="SourceGraphic"
         stdDeviation="0.200000"
         id="feGaussianBlur2" />
      <feOffset
         result="offset"
         in="blur"
         dx="0.200000"
         dy="0.200000"
         id="feOffset2" />
      <feComposite
         result="comp1"
         operator="in"
         in="flood"
         in2="offset"
         id="feComposite3" />
      <feComposite
         result="comp2"
         operator="over"
         in="SourceGraphic"
         in2="comp1"
         id="feComposite4" />
    </filter>
    <filter
       style="color-interpolation-filters:sRGB;"
       inkscape:label="Drop Shadow"
       id="filter6"
       x="-0.060000001"
       y="-0.048000001"
       width="1.145"
       height="1.116">
      <feFlood
         result="flood"
         in="SourceGraphic"
         flood-opacity="0.498039"
         flood-color="rgb(0,0,0)"
         id="feFlood3" />
      <feGaussianBlur
         result="blur"
         in="SourceGraphic"
         stdDeviation="0.400000"
         id="feGaussianBlur3" />
      <feOffset
         result="offset"
         in="blur"
         dx="0.400000"
         dy="0.400000"
         id="feOffset3" />
      <feComposite
         result="comp1"
         operator="in"
         in="flood"
         in2="offset"
         id="feComposite5" />
      <feComposite
         result="comp2"
         operator="over"
         in="SourceGraphic"
         in2="comp1"
         id="feComposite6" />
    </filter>
    <filter
       style="color-interpolation-filters:sRGB;"
       inkscape:label="Drop Shadow"
       id="filter8"
       x="-0.053333334"
       y="-0.048000001"
       width="1.1288889"
       height="1.116">
      <feFlood
         result="flood"
         in="SourceGraphic"
         flood-opacity="0.498039"
         flood-color="rgb(0,0,0)"
         id="feFlood6" />
      <feGaussianBlur
         result="blur"
         in="SourceGraphic"
         stdDeviation="0.400000"
         id="feGaussianBlur6" />
      <feOffset
         result="offset"
         in="blur"
         dx="0.400000"
         dy="0.400000"
         id="feOffset6" />
      <feComposite
         result="comp1"
         operator="in"
         in="flood"
         in2="offset"
         id="feComposite7" />
      <feComposite
         result="comp2"
         operator="over"
         in="SourceGraphic"
         in2="comp1"
         id="feComposite8" />
    </filter>
  </defs>
  <sodipodi:namedview
     id="namedview1"
     pagecolor="#505050"
     bordercolor="#eeeeee"
     borderopacity="1"
     inkscape:showpageshadow="0"
     inkscape:pageopacity="0"
     inkscape:pagecheckerboard="0"
     inkscape:deskcolor="#505050"
     inkscape:zoom="27"
     inkscape:cx="12.055556"
     inkscape:cy="12"
     inkscape:window-width="2560"
     inkscape:window-height="1368"
     inkscape:window-x="0"
     inkscape:window-y="0"
     inkscape:window-maximized="1"
     inkscape:current-layer="svg1" />
  <path
     d="m 4,4 v 18 h 16 v 2 H 4 C 2.9,24 2,23.1 2,22 V 4 h 2"
     id="path3"
     style="display:inline;fill:#4cae4f;fill-opacity:1"
     sodipodi:nodetypes="ccccsscc" />
  <path
     d="m 15,7 h 5.5 L 15,1.5 V 7 M 8,0 h 8 l 6,6 v 12 c 0,1.11 -0.89,2 -2,2 H 8 C 6.89,20 6,19.1 6,18 V 2 C 6,0.89 6.89,0 8,0 m 9,16 V 14 H 8 v 2 h 9 m 3,-4 V 10 H 8 v 2 z"
     id="path4"
     style="display:inline;fill:#0091eb;fill-opacity:1"
     sodipodi:nodetypes="cccccccsssssccccccccccc" />
</svg>
